X: 37897
T: South Shore Lasses
R: reel
M: 4/4
K: Dmajor
e|"D"fA A/B/A "Bm"BAFA|"D"dcde "F#m"faec|"D"dD D/E/D "Em"EDB,D|"D"FAdc "G"B2 de|
"D"fA A/B/A "Bm"BAFA|"D"dcde "F#m"faec|"G"dBGE "D"FAdf|"A"eAce "D"d3:|
f|"G"gB B/^A/B "A"=A^GAc|"D"dfaf "Bm"bfaf|"Em"eB B/^A/B "G"gfed|"A"cBAc "D"d2 gf|
"Em"eB B/^A/B "A"=A^GAc|"D"dfaf "Bm"bagf|"Em"eB B/^A/B "G"GBdg|"A7"agec "D"d3:|

